src/main/resources/icons/CLionEmbeddedIcons/icons/ResetMcu.svg

<svg xmlns="http://www.w3.org/2000/svg" width="16" height="16" viewBox="0 0 16 16">
  <g fill="none" fill-rule="evenodd">
    <rect width="10" height="2" x="3" y="1" fill="#6E6E6E"/>
    <path fill="#6E6E6E" d="M4,15 L4,5 L8.45714286,5 C9.71428571,5 10.7,5.37142857 11.3428571,6 C11.8714286,6.54285714 12.1714286,7.28571429 12.1714286,8.15714286 L12.1714286,8.18571429 C12.1714286,9.82857143 11.1857143,10.8142857 9.8,11.2142857 L12.5,15 L10.4142857,15 L7.95714286,11.5142857 L5.75714286,11.5142857 L5.75714286,15 L4,15 Z M5.75714286,9.95714286 L8.32857143,9.95714286 C9.58571429,9.95714286 10.3857143,9.3 10.3857143,8.28571429 L10.3857143,8.25714286 C10.3857143,7.18571429 9.61428571,6.6 8.31428571,6.6 L5.75714286,6.6 L5.75714286,9.95714286 Z"/>
  </g>
</svg>

<svg xmlns="http://www.w3.org/2000/svg" width="16" height="16" viewBox="0 0 16 16"><rect id="frame" width="16" height="16" fill="none"/><g fill="#6E6E6E" fill-rule="evenodd"><path d="M3 1h10v2H3z"/><path d="M4 15V5h4.457c1.257 0 2.243.371 2.886 1 .528.543.828 1.286.828 2.157v.029c0 1.643-.985 2.628-2.371 3.028L12.5 15h-2.086l-2.457-3.486h-2.2V15H4zm1.757-5.043H8.33c1.257 0 2.057-.657 2.057-1.671v-.029c0-1.071-.772-1.657-2.072-1.657H5.757v3.357z"/></g></svg>
